icons/core/lighbulb.svg

<svg width="32" height="32" viewBox="0 0 32 32" fill="none" xmlns="http://www.w3.org/2000/svg">
<path fill-rule="evenodd" clip-rule="evenodd" d="M8 12C8 7.58172 11.5817 4 16 4C20.4183 4 24 7.58172 24 12C24 13.4899 23.7151 14.5575 23.3186 15.3769C22.9194 16.202 22.3818 16.829 21.7929 17.4179C21.6402 17.5706 21.472 17.7312 21.2976 17.8976L21.2976 17.8976C20.8524 18.3226 20.3671 18.7858 19.9964 19.2554C19.4258 19.9781 19 20.8463 19 22V24H17V15.4142L20.7071 11.7071L19.2929 10.2929L16 13.5858L12.7071 10.2929L11.2929 11.7071L15 15.4142V24H13V22C13 20.8463 12.5742 19.9781 12.0036 19.2554C11.6329 18.7858 11.1476 18.3225 10.7024 17.8976L10.7024 17.8976C10.528 17.7312 10.3598 17.5706 10.2071 17.4179C9.61825 16.829 9.08061 16.202 8.68141 15.3769C8.28492 14.5575 8 13.4899 8 12ZM13 26V28H19V26H13ZM16 2C10.4772 2 6 6.47715 6 12C6 13.7601 6.34008 15.13 6.88109 16.2481C7.41939 17.3605 8.13175 18.171 8.79289 18.8321C9.02957 19.0688 9.24439 19.2734 9.44129 19.461L9.44133 19.461C9.83278 19.8339 10.1534 20.1393 10.4339 20.4946C10.8008 20.9594 11 21.4037 11 22V28C11 29.1046 11.8954 30 13 30H19C20.1046 30 21 29.1046 21 28V22C21 21.4037 21.1992 20.9594 21.5661 20.4946C21.8466 20.1393 22.1672 19.8339 22.5587 19.461C22.7556 19.2735 22.9704 19.0688 23.2071 18.8321C23.8682 18.171 24.5806 17.3605 25.1189 16.2481C25.6599 15.13 26 13.7601 26 12C26 6.47715 21.5228 2 16 2Z" fill="black"/>
</svg>

<svg viewBox="0 0 32 32" xmlns="http://www.w3.org/2000/svg"><path fill-rule="evenodd" d="M8 12a8 8 0 1116 0c0 1.49-.285 2.557-.681 3.377-.4.825-.937 1.452-1.526 2.04-.153.154-.321.314-.495.48-.446.426-.93.889-1.302 1.358-.57.723-.996 1.591-.996 2.745v2h-2v-8.586l3.707-3.707-1.414-1.414L16 13.586l-3.293-3.293-1.414 1.414L15 15.414V24h-2v-2c0-1.154-.426-2.022-.996-2.745-.371-.47-.856-.932-1.302-1.357a30.132 30.132 0 01-.495-.48c-.589-.589-1.126-1.216-1.526-2.041C8.285 14.557 8 13.49 8 12zm5 14v2h6v-2h-6zm3-24C10.477 2 6 6.477 6 12c0 1.76.34 3.13.881 4.248.538 1.112 1.25 1.923 1.912 2.584.237.237.451.441.648.629.392.373.712.678.993 1.034.367.464.566.909.566 1.505v6a2 2 0 002 2h6a2 2 0 002-2v-6c0-.596.2-1.04.566-1.505.28-.356.601-.661.993-1.034.197-.188.411-.392.648-.629.661-.661 1.374-1.472 1.912-2.584C25.659 15.13 26 13.76 26 12c0-5.523-4.477-10-10-10z"/></svg>
